X: 90
%
U:~=!turn!
T: Captain Keeler
C:
O:Scotland
B:Keith Norman MacDonald : "The Skye collection of the best reels & strathspeys extant" : 1887
Z:Ralph Palmer
R:Reel
M:C
L:1/8
K:G aeolian
F | B2 (d/c/B) fBbB | B2 (d/c/B) AFcA | B2 (d/c/B) fBbB | cAFA BGG  ::
B | (DG)BG (dG)BG | (DG)BG (AF)cA | (DG)BG (dG)BG | cAFA BGG :|


